X:49
T:Sir Sidney Smith’s March.2voices. JMT.049
M:4/4
L:1/8
Q:1/2=100
S:J.Moore,Tyneside,1841.(36)
R:.March
O:England
A:Northumbria
Z:vmp.Chris Partington
K:Bb
[V:1]|:de|f2f2f2f2|g2f2e2d2|e2dec2fd|decdB2fe|!
[V:2]|:Bc|d2d2d2d2|e2d2c2B2|c2A2F2GA|B2F2B,2F2|!
[V:1]dfdf cfcf|BfBfA2fe|defgf2=e2|f6:|!
[V:2]B2B2A2A2|G2G2F2F2|” crotchets in MS”AGAB c2C2|F6:|!
[V:1]cB|AFAc fcde|d6fe|dBdf bfga|g6ba|!
[V:2]z2|z8|B6z2|z8|
[V:1]gbgb fbfb|ebeb dbdb|gbgb fbfb|ebeb dbdb|!
[V:2]e6z2|e2e2d2d2|c2c2B2B2|e2e2d2d2|!
[V:1]g2f2e2d2|g2f2e2d2|g2f2e2d2|c6de|f2f2f2f2|!
[V:2]c2c2B2B2|e2d2c2B2|e2d2c2B2|e2d2c2B2|F6Bc|d2d2d2d2|!
[V:1]g2f2e2d2|e2dec2fe|decdB2fe|dfdf cfcf|!
[V:2]e2d2c2B2|B2A2F2GA|B2F2B,2F2|B2B2F2F2|!
[V:1]BfBf AfAf|GfGf AfAf|” supposed”BfBf cfcf|dgfe d2c2|B6|]
[V:2]G2G2F2F2|C2C2E2E2|F2F2A2A2|B2DEF2F2|B,6|]

